X:1
T:Title
%%score { ( 1 3 5 ) | ( 2 4 ) }
L:1/8
M:4/4
K:Db
V:1 treble nm="Grand Piano"
V:3 treble 
V:5 treble 
V:2 bass 
V:4 bass 
V:1
 z4 z2 z[Q:1/4=108] [FA] | [FA]3 [FA] [FA]2 (3DFA | [DFd]2 [DGB]2 [DFA]2 [A,DF][DFA] | %3
 [DGB]3 [DGB] [DFA][DF] z E |[M:7/8] F2 E2 E3 |[M:1/8] A |[M:4/4] [FA]3 [FA] [FA]2 (3DFA | %7
 [DFd]2 [DGB]2 [DFA]2 [A,DF][DFA] | [DGB]3 [DGB] [DFA][DF] z E | [DF]2[K:bass] .[A,CE]2 [F,D]4 | %10
 .[CE]2 .[CE]2 z [DF][EG][CE] | .[DF]2 .[DF]2 z [EG][FA][DF] | .[Fd]2 .[Fc]2 .[FB]2 .[FA]2 | %13
[M:3/4] A4 =G2 |[M:1/4] [B,E=G]2 |[M:4/4] [Ee]3 [Ed] [Ec]3 [D_FB] | %16
 [CFA]2 [B,_F=G]2 [A,=F]2 [Fd]2 | c4 z2 z c | A6 z2 | [FA]3 [FA] [FA]2 (3DFA | %20
 [DFd]2 [DGB]2 [DFA]2 [A,DF][DFA] | [DGB]3 [DGB] [DFA][DF] z E |[M:7/8] F2 E2 E3 |[M:1/8] A | %24
[M:4/4] [FA]3 [FA] [FA]2 (3DFA | [DFd]2 [DGB]2 [DFA]2 [A,DF][DFA] | [DGB]3 [DGB] [DFA][DF] z E | %27
[M:8/4] [DF]2[K:bass] .[A,CE]2 [F,D]4 z8 |] %28
V:2
 z4 z2 z [D,D] | [D,D]3 [D,D] [D,D]2 (3D,F,A, | D,2 D,2 D,2 D,D, | G,3 G, z A,F,G, | %4
[M:7/8][K:treble] [A,D]2 [=G,B,D]2 [A,C]3 |[M:1/8] [A,CG] | %6
[M:4/4][K:bass] [D,D]3 [D,D] [D,D]2 (3D,F,A, | D,2 D,2 D,2 D,D, | G,3 G, z A,F,G, | A,2 z G, D,4 | %10
 .[A,,A,]2 .[A,,A,]2 z [A,,A,][A,,A,][A,,A,] | .[D,A,]2 .[D,A,]2 z [D,A,][D,A,][D,A,] | %12
 .[B,,B,]2 .[C,=A,]2 .[D,B,]2 .[=D,_C]2 |[M:3/4] C4 z2 |[M:1/4] D,2 | %15
[M:4/4] [C,A,]3 [B,,=G,] [A,,A,]3 B,, | C,2 C,2 F,2 [D,A,]2 | [E,A,E]4 [E,=G,E]2 [E,D]2 | %18
 E4 z2 z [A,CG] | [D,D]3 [D,D] [D,D]2 (3D,F,A, | D,2 D,2 D,2 D,D, | G,3 G, z A,F,G, | %22
[M:7/8][K:treble] [A,D]2 [=G,B,D]2 [A,C]3 |[M:1/8] [A,CG] | %24
[M:4/4][K:bass] [D,D]3 [D,D] [D,D]2 (3D,F,A, | D,2 D,2 D,2 D,D, | G,3 G, z A,F,G, | %27
[M:8/4] .A,3 G, D,4 z8 |] %28
V:3
 x8 | x8 | x8 | z4 z2 [A,D]2 |[M:7/8] x7 |[M:1/8] x |[M:4/4] x8 | x8 | z4 z2 [A,D]2 | %9
 x2[K:bass] x6 | x8 | x8 | x8 |[M:3/4] x6 |[M:1/4] x2 |[M:4/4] x8 | x8 | z4 B4 | z4 G2 z A | x8 | %20
 x8 | z4 z2 [A,D]2 |[M:7/8] x7 |[M:1/8] x |[M:4/4] x8 | x8 | z4 z2 [A,D]2 | %27
[M:8/4] x2[K:bass] x14 |] %28
V:4
 x8 | x8 | x8 | z4 D,2 z2 |[M:7/8][K:treble] x7 |[M:1/8] x |[M:4/4][K:bass] x8 | x8 | z4 D,2 z2 | %9
 z2 A,,2 z4 | x8 | x8 | x8 |[M:3/4] [E,E]4- [E,B,E]2 |[M:1/4] x2 |[M:4/4] x8 | x8 | x8 | %18
 [A,C]6 z2 | x8 | x8 | z4 D,2 z2 |[M:7/8][K:treble] x7 |[M:1/8] x |[M:4/4][K:bass] x8 | x8 | %26
 z4 D,2 z2 |[M:8/4] z2 A,,2 z4 z8 |] %28
V:5
 x8 | x8 | x8 | x8 |[M:7/8] x7 |[M:1/8] x |[M:4/4] x8 | x8 | x8 | x2[K:bass] x6 | x8 | x8 | x8 | %13
[M:3/4] x6 |[M:1/4] x2 |[M:4/4] x8 | x8 | z4 z2 E2 | x8 | x8 | x8 | x8 |[M:7/8] x7 |[M:1/8] x | %24
[M:4/4] x8 | x8 | x8 |[M:8/4] x2[K:bass] x14 |] %28

